Origami/22x22/apps/openspades.svg

<svg width="22" height="22" version="1" xmlns="http://www.w3.org/2000/svg">
 <path d="m1 8v12c0 0.554 0.446 1 1 1h18c0.554 0 1-0.446 1-1v-12h-20z" style="fill:#ffffbf"/>
 <path d="m21 8v-6c0-0.554-0.446-1-1-1h-18c-0.554 0-1 0.446-1 1v6z" style="fill:#6765f6"/>
 <path d="m2 1c-0.554 0-1 0.446-1 1v0.5c0-0.554 0.446-1 1-1h18c0.554 0 1 0.446 1 1v-0.5c0-0.554-0.446-1-1-1h-18z" style="fill:#ffffff;opacity:.1"/>
 <path d="m2 21.5c-0.554 0-1-0.446-1-1v-0.5c0 0.554 0.446 1 1 1h18c0.554 0 1-0.446 1-1v0.5c0 0.554-0.446 1-1 1h-18z" style="opacity:.2"/>
 <rect x="5" y="8.5" width="4" height="4" style="opacity:.1"/>
 <rect x="5" y="8" width="4" height="4" style="fill:#3f3f3f"/>
 <rect x="13" y="8.5" width="4" height="4" style="opacity:.1"/>
 <rect x="13" y="8" width="4" height="4" style="fill:#3f3f3f"/>
</svg>

<svg xmlns="http://www.w3.org/2000/svg" width="22" height="22" version="1">
 <path style="fill:#ffffbf" d="m 1,8 0,12 c 0,0.554 0.446,1 1,1 l 18,0 c 0.554,0 1,-0.446 1,-1 L 21,8 1,8 Z"/>
 <path style="fill:#6765f6" d="M 21,8 21,2 C 21,1.446 20.554,1 20,1 L 2,1 C 1.446,1 1,1.446 1,2 l 0,6 z"/>
 <path style="opacity:0.1;fill:#ffffff" d="M 2,1 C 1.446,1 1,1.446 1,2 l 0,0.5 c 0,-0.554 0.446,-1 1,-1 l 18,0 c 0.554,0 1,0.446 1,1 L 21,2 C 21,1.446 20.554,1 20,1 L 2,1 Z"/>
 <path style="opacity:0.2" d="m 2,21.5 c -0.554,0 -1,-0.446 -1,-1 L 1,20 c 0,0.554 0.446,1 1,1 l 18,0 c 0.554,0 1,-0.446 1,-1 l 0,0.5 c 0,0.554 -0.446,1 -1,1 l -18,0 z"/>
 <rect style="opacity:0.1" width="4" height="4" x="5" y="8.5"/>
 <rect style="fill:#3f3f3f" width="4" height="4" x="5" y="8"/>
 <rect style="opacity:0.1" width="4" height="4" x="13" y="8.5"/>
 <rect style="fill:#3f3f3f" width="4" height="4" x="13" y="8"/>
</svg>
